T: Sean Coghlan's
M: 12/8
L: 1/8
K: Amaj
cd|~e3 ecA|cee ecA|dfd cec|~B3 Bcd|!~e3 ecA|cee ecA|dfd cec|BcB A:||!ce|a2f e2c|efe cBA|dfd cec|~B3 Bce|!a2f e2c|efe cBA|dfd cec|BcB A:||
